X:105
T: Frau Luddelei
N: A0466
O: Europa, Mitteleuropa, Deutschland
N: Forster II 1540 No. 19.
R: Romanze, Ballade, Lied
M: 4/2
L: 1/4
K: F
F2 | c2c2c2F2 | c3cc2
c2 | d2c2c2B2 | c4A2
F2 | c2c2c2F2 | c3cc2
c2 | d2c2c2B2 | c4A2z2 |
A4A2A2 | G2G2F4 |
A2A2AAA2 | G2G2F4 |
A2F2G2G2 | F6

@@@ Tune index: 418
